svg/u1f525.svg

<svg viewBox="0 0 128 128" xmlns="http://www.w3.org/2000/svg">
  <g>
    <radialGradient id="SVGID_1_" cx="68.8839" cy="124.2963" gradientTransform="matrix(-1 -4.343011e-03 -7.125917e-03 1.6408 131.9857 -79.3452)" gradientUnits="userSpaceOnUse" r="70.587">
      <stop offset="0.3144" stop-color="#FF9800"/>
      <stop offset="0.6616" stop-color="#FF6D00"/>
      <stop offset="0.9715" stop-color="#F44336"/>
    </radialGradient>
    <path d="M35.56,40.73c-0.57,6.08-0.97,16.84,2.62,21.42c0,0-1.69-11.82,13.46-26.65 c6.1-5.97,7.51-14.09,5.38-20.18c-1.21-3.45-3.42-6.3-5.34-8.29C50.56,5.86,51.42,3.93,53.05,4c9.86,0.44,25.84,3.18,32.63,20.22 c2.98,7.48,3.2,15.21,1.78,23.07c-0.9,5.02-4.1,16.18,3.2,17.55c5.21,0.98,7.73-3.16,8.86-6.14c0.47-1.24,2.1-1.55,2.98-0.56 c8.8,10.01,9.55,21.8,7.73,31.95c-3.52,19.62-23.39,33.9-43.13,33.9c-24.66,0-44.29-14.11-49.38-39.65 c-2.05-10.31-1.01-30.71,14.89-45.11C33.79,38.15,35.72,39.11,35.56,40.73z" fill="url(#SVGID_1_)"/>
    <g>
      <radialGradient id="SVGID_2_" cx="64.9211" cy="54.0621" gradientTransform="matrix(-0.0101 0.9999 0.7525 7.603777e-03 26.1538 -11.2668)" gradientUnits="userSpaceOnUse" r="73.8599">
        <stop offset="0.2141" stop-color="#FFF176"/>
        <stop offset="0.3275" stop-color="#FFF27D"/>
        <stop offset="0.4868" stop-color="#FFF48F"/>
        <stop offset="0.6722" stop-color="#FFF7AD"/>
        <stop offset="0.7931" stop-color="#FFF9C4"/>
        <stop offset="0.8221" stop-color="#FFF8BD" stop-opacity="0.804"/>
        <stop offset="0.8627" stop-color="#FFF6AB" stop-opacity="0.529"/>
        <stop offset="0.9101" stop-color="#FFF38D" stop-opacity="0.2088"/>
        <stop offset="0.9409" stop-color="#FFF176" stop-opacity="0"/>
      </radialGradient>
      <path d="M76.11,77.42c-9.09-11.7-5.02-25.05-2.79-30.37c0.3-0.7-0.5-1.36-1.13-0.93 c-3.91,2.66-11.92,8.92-15.65,17.73c-5.05,11.91-4.69,17.74-1.7,24.86c1.8,4.29-0.29,5.2-1.34,5.36 c-1.02,0.16-1.96-0.52-2.71-1.23c-2.15-2.05-3.7-4.72-4.44-7.6c-0.16-0.62-0.97-0.79-1.34-0.28c-2.8,3.87-4.25,10.08-4.32,14.47 C40.47,113,51.68,124,65.24,124c17.09,0,29.54-18.9,19.72-34.7C82.11,84.7,79.43,81.69,76.11,77.42z" fill="url(#SVGID_2_)"/>
    </g>
  </g>
</svg>

<svg viewBox="0 0 128 128" xmlns="http://www.w3.org/2000/svg">
  <defs>
    <radialGradient id="SVGID_1_" cx="-62.754725" cy="75.590237" gradientTransform="matrix(-1 -0.004343 -0.007126 1.6408 0 0)" gradientUnits="userSpaceOnUse" r="70.587">
      <stop offset="0.3144" stop-color="#FF9800"/>
      <stop offset="0.6616" stop-color="#FF6D00"/>
      <stop offset="0.9715" stop-color="#F44336"/>
    </radialGradient>
    <radialGradient id="SVGID_2_" cx="53.390048" cy="88.663211" gradientTransform="matrix(-0.0101 0.9999 0.7525 0.007604 0 0)" gradientUnits="userSpaceOnUse" r="73.8599">
      <stop offset="0.2141" stop-color="#FFF176"/>
      <stop offset="0.3275" stop-color="#FFF27D"/>
      <stop offset="0.4868" stop-color="#FFF48F"/>
      <stop offset="0.6722" stop-color="#FFF7AD"/>
      <stop offset="0.7931" stop-color="#FFF9C4"/>
      <stop offset="0.8221" stop-color="#FFF8BD" stop-opacity="0.804"/>
      <stop offset="0.8627" stop-color="#FFF6AB" stop-opacity="0.529"/>
      <stop offset="0.9101" stop-color="#FFF38D" stop-opacity="0.2088"/>
      <stop offset="0.9409" stop-color="#FFF176" stop-opacity="0"/>
    </radialGradient>
  </defs>
  <path d="M35.56,40.73 C34.99,46.81 34.59,57.57 38.18,62.15 C38.18,62.15 36.49,50.33 51.64,35.5 C57.74,29.53 59.15,21.41 57.02,15.32 C55.81,11.87 53.6,9.02 51.68,7.03 C50.56,5.86 51.42,3.93 53.05,4 C62.91,4.44 78.89,7.18 85.68,24.22 C88.66,31.7 88.88,39.43 87.46,47.29 C86.56,52.31 83.36,63.47 90.66,64.84 C95.87,65.82 98.39,61.68 99.52,58.7 C99.99,57.46 101.62,57.15 102.5,58.14 C111.3,68.15 112.05,79.94 110.23,90.09 C106.71,109.71 86.84,123.99 67.1,123.99 C42.44,123.99 22.81,109.88 17.72,84.34 C15.67,74.03 16.71,53.63 32.61,39.23 C33.79,38.15 35.72,39.11 35.56,40.73 Z" fill="url(#SVGID_1_)"/>
  <path d="M76.11,77.42 C67.02,65.72 71.09,52.37 73.32,47.05 C73.62,46.35 72.82,45.69 72.19,46.12 C68.28,48.78 60.27,55.04 56.54,63.85 C51.49,75.76 51.85,81.59 54.84,88.71 C56.64,93 54.55,93.91 53.5,94.07 C52.48,94.23 51.54,93.55 50.79,92.84 C48.64,90.79 47.09,88.12 46.35,85.24 C46.19,84.62 45.38,84.45 45.01,84.96 C42.21,88.83 40.76,95.04 40.69,99.43 C40.47,113 51.68,124 65.24,124 C82.33,124 94.78,105.1 84.96,89.3 C82.11,84.7 79.43,81.69 76.11,77.42 Z" fill="url(#SVGID_2_)"/>
</svg>
